epam-assets/icon-sources/18/internal-logo/projects.svg

<svg width="18" height="18" viewBox="0 0 18 18" fill="none" xmlns="http://www.w3.org/2000/svg">
<g id="18/internal-logo/projects">
<path id="icon" fill-rule="evenodd" clip-rule="evenodd" d="M9.00012 1.5L15.3751 5.25V12.75L9.00012 16.5L6.7501 15.1764V12.5261L9.00012 13.8495L13.1324 11.4188V6.5812L9.00012 4.15041L4.8678 6.5812V11.4188L4.87514 11.4231V14.0735L2.62512 12.75V5.25L9.00012 1.5ZM9.00012 6.3324L11.2574 7.6602V10.3398L9.00012 11.6676L6.7501 10.3441V10.3245H6.74281V7.6602L9.00012 6.3324Z" fill="#6C6F80"/>
</g>
</svg>

<svg xmlns="http://www.w3.org/2000/svg" width="18" height="18" fill="none" viewBox="0 0 18 18">
  <path fill="#6C6F80" fill-rule="evenodd" d="m9 1.5 6.375 3.75v7.5L9 16.5l-2.25-1.324v-2.65L9 13.85l4.132-2.431V6.58L9 4.151 4.868 6.58v4.838l.007.004v2.65l-2.25-1.323v-7.5L9 1.5Zm0 4.832 2.257 1.328v2.68L9 11.668l-2.25-1.324v-.02h-.007V7.66L9 6.332Z" clip-rule="evenodd"/>
</svg>
